public/images/speech-bubble.svg

<svg preserveAspectRatio="none" width="100%" height="100%" overflow="visible" style="display: block;" viewBox="0 0 153.507 77.1642" fill="none" xmlns="http://www.w3.org/2000/svg">
<path id="Vector" d="M76.4182 0C59.8751 0 47.0161 3.53808e-07 37.006 0.593591C26.8817 1.19905 18.8636 2.45351 12.4662 5.28692C5.89754 8.19947 2.82739 11.9866 1.378 16.763C-3.19178e-07 21.3218 0 27.1232 0 34.357V35.0812C0 42.1331 3.19178e-07 47.0124 1.42798 50.6491C2.19908 52.608 3.41286 54.3096 5.31921 55.8846C7.20414 57.4359 9.60314 58.7418 12.4662 60.0081C16.9715 62.0065 22.2836 63.2135 28.5595 63.9654V74.1989C28.5604 74.7189 28.8077 75.2296 29.2767 75.6799C29.7457 76.1303 30.4199 76.5044 31.2319 76.7649C32.0439 77.0254 32.9651 77.1631 33.9033 77.1642C34.8415 77.1653 35.7637 77.0297 36.5776 76.7711C40.7616 75.4454 44.4672 74.001 47.8586 72.6397L50.0292 71.7652C52.4442 70.763 54.9109 69.7997 57.4261 68.8763C63.4521 66.7078 69.2069 65.295 76.7537 65.295H77.0893C93.6324 65.295 106.491 65.295 116.501 64.7014C126.626 64.096 134.644 62.8415 141.041 60.0081C143.897 58.7418 146.303 57.4359 148.181 55.8846C150.095 54.3096 151.308 52.608 152.079 50.6491C153.507 47.0124 153.507 42.1331 153.507 35.0812V34.357C153.507 27.1232 153.507 21.3218 152.129 16.767C150.68 11.9866 147.61 8.19947 141.041 5.28692C134.644 2.44955 126.626 1.19905 116.501 0.597548C106.491 1.17936e-07 93.6324 0 77.0893 0H76.4182Z" fill="var(--fill-0, white)"/>
</svg>

<svg xmlns="http://www.w3.org/2000/svg" fill="none" overflow="visible" preserveAspectRatio="none" style="display:block" viewBox="0 0 153.507 77.164"><path fill="var(--fill-0, white)" d="M76.418 0C59.875 0 47.016 0 37.006.594c-10.124.605-18.142 1.86-24.54 4.693-6.568 2.912-9.639 6.7-11.088 11.476C0 21.322 0 27.123 0 34.357v.724c0 7.052 0 11.931 1.428 15.568.771 1.959 1.985 3.66 3.891 5.236 1.885 1.55 4.284 2.857 7.147 4.123 4.506 1.999 9.818 3.206 16.093 3.957V74.2c.001.52.249 1.03.718 1.48.469.451 1.143.825 1.955 1.086.812.26 1.733.398 2.671.4a8.9 8.9 0 0 0 2.675-.394c4.184-1.326 7.89-2.77 11.28-4.131l2.171-.875a191 191 0 0 1 7.397-2.889c6.026-2.168 11.78-3.581 19.328-3.581h.335c16.543 0 29.402 0 39.412-.594 10.125-.605 18.143-1.86 24.54-4.693 2.856-1.266 5.262-2.572 7.14-4.123 1.914-1.575 3.127-3.277 3.898-5.236 1.428-3.637 1.428-8.516 1.428-15.568v-.724c0-7.234 0-13.035-1.378-17.59-1.449-4.78-4.519-8.568-11.088-11.48-6.397-2.837-14.415-4.088-24.54-4.69C106.491 0 93.632 0 77.089 0z"/></svg>
